src/public/images/404.svg

<svg width="405" height="269" viewBox="0 0 405 269" fill="none" xmlns="http://www.w3.org/2000/svg">
<path d="M323.565 193.416V113.891C323.565 110.577 320.879 107.891 317.565 107.891H304.2C300.886 107.891 298.2 105.205 298.2 101.891V49.6764" stroke="url(#paint0_linear_345_6)" stroke-opacity="0.5" stroke-linecap="round" stroke-dasharray="13 13"/>
<ellipse cx="298.437" cy="50.2629" rx="5.30974" ry="5.30976" transform="rotate(-90 298.437 50.2629)" fill="#ACD4A7"/>
<ellipse cx="298.433" cy="50.2914" rx="3.18555" ry="3.18556" transform="rotate(-90 298.433 50.2914)" fill="#389D2D"/>
<path d="M82.7229 148.463V68.9377C82.7229 65.624 85.4092 62.9377 88.7229 62.9377H102.089C105.402 62.9377 108.089 60.2514 108.089 56.9377V4.72325" stroke="url(#paint1_linear_345_6)" stroke-opacity="0.5" stroke-linecap="round" stroke-dasharray="13 13"/>
<ellipse cx="5.30974" cy="5.30976" rx="5.30974" ry="5.30976" transform="matrix(0 -1 -1 0 113.161 10.6195)" fill="#ACD4A7"/>
<ellipse cx="3.18555" cy="3.18556" rx="3.18555" ry="3.18556" transform="matrix(0 -1 -1 0 111.041 8.52379)" fill="#389D2D"/>
<path d="M222.992 183.429H317.61C320.923 183.429 323.61 186.115 323.61 189.429V202.795C323.61 206.108 326.296 208.795 329.61 208.795H392.097" stroke="url(#paint2_linear_345_6)" stroke-opacity="0.5" stroke-linecap="round"/>
<ellipse cx="5.30975" cy="5.30975" rx="5.30975" ry="5.30975" transform="matrix(1 0 0 -1 387.023 214.345)" fill="#ACD4A7"/>
<ellipse cx="3.18555" cy="3.18555" rx="3.18555" ry="3.18555" transform="matrix(1 0 0 -1 389.151 212.216)" fill="#389D2D"/>
<path d="M157.411 170.705H77.886C74.5723 170.705 71.886 168.019 71.886 164.705V151.34C71.886 148.026 69.1997 145.34 65.886 145.34H13.6714" stroke="url(#paint3_linear_345_6)" stroke-opacity="0.5" stroke-linecap="round" stroke-dasharray="13 13"/>
<ellipse cx="5.30976" cy="5.30974" rx="5.30976" ry="5.30974" transform="matrix(-1 0 0 1 19.6113 140.269)" fill="#ACD4A7"/>
<ellipse cx="3.18556" cy="3.18555" rx="3.18556" ry="3.18555" transform="matrix(-1 0 0 1 17.4827 142.394)" fill="#389D2D"/>
<g filter="url(#filter0_f_345_6)">
<path d="M305.399 118.267C244.741 96.1894 152.183 107.554 98.6676 143.65C45.1518 179.747 50.9424 226.908 111.601 248.986C172.26 271.064 264.817 259.699 318.333 223.602C371.848 187.505 366.058 140.345 305.399 118.267Z" stroke="#7D7D7D" stroke-opacity="0.3" stroke-width="2" stroke-linecap="round" stroke-linejoin="round"/>
</g>
<path d="M305.399 89.5598C244.741 67.4819 152.183 78.8461 98.6676 114.943C45.1518 151.04 50.9424 198.2 111.601 220.278C172.26 242.356 264.817 230.991 318.333 194.894C371.848 158.798 366.058 111.638 305.399 89.5598Z" stroke="#389D2D" stroke-width="2" stroke-linecap="round" stroke-linejoin="round"/>
<circle opacity="0.11" cx="89.7646" cy="89.7646" r="89.7646" transform="matrix(-0.939693 -0.34202 -0.829038 0.559193 366.776 141.887)" fill="url(#paint4_radial_345_6)"/>
<circle opacity="0.11" cx="59.5019" cy="59.5019" r="59.5019" transform="matrix(-0.939693 -0.34202 -0.829038 0.559193 310.807 155.809)" fill="url(#paint5_radial_345_6)"/>
<path opacity="0.61" d="M227.515 160.517C212.118 154.913 188.626 157.798 175.042 166.96C161.458 176.122 162.928 188.092 178.325 193.696C193.721 199.3 217.214 196.415 230.798 187.253C244.381 178.091 242.911 166.121 227.515 160.517Z" fill="#389D2D" stroke="#C2E6BE" stroke-linecap="round" stroke-linejoin="round"/>
<g clip-path="url(#clip0_345_6)">
<path d="M199.738 19.4141L145.293 73.9309C143.501 75.7253 143.501 78.6345 145.293 80.4289L199.738 134.946C201.53 136.74 204.435 136.74 206.227 134.946L260.673 80.4289C262.465 78.6345 262.465 75.7253 260.673 73.9309L206.227 19.4141C204.435 17.6197 201.53 17.6197 199.738 19.4141Z" fill="url(#paint6_linear_345_6)" stroke="url(#paint7_linear_345_6)"/>
<path d="M199.81 26.6165L152.557 73.9307C150.765 75.7251 150.765 78.6343 152.557 80.4287L199.81 127.743C201.602 129.537 204.507 129.537 206.299 127.743L253.551 80.4287C255.343 78.6343 255.343 75.7251 253.551 73.9307L206.299 26.6165C204.507 24.8222 201.602 24.8222 199.81 26.6165Z" stroke="#A7A7A7" stroke-opacity="0.3"/>
<path d="M182.328 89C182.101 89 181.909 88.9207 181.75 88.762C181.591 88.6033 181.512 88.3993 181.512 88.15V84.07H170.802C170.575 84.07 170.383 83.9907 170.224 83.832C170.065 83.6733 169.986 83.4693 169.986 83.22V80.466C169.986 80.3073 170.02 80.1373 170.088 79.956C170.156 79.7747 170.247 79.6047 170.36 79.446L180.322 65.778C180.617 65.3927 181.036 65.2 181.58 65.2H185.898C186.125 65.2 186.317 65.2793 186.476 65.438C186.635 65.5967 186.714 65.8007 186.714 66.05V79.548H189.74C190.012 79.548 190.216 79.6273 190.352 79.786C190.511 79.9447 190.59 80.1373 190.59 80.364V83.22C190.59 83.4693 190.511 83.6733 190.352 83.832C190.193 83.9907 190.001 84.07 189.774 84.07H186.714V88.15C186.714 88.3993 186.635 88.6033 186.476 88.762C186.317 88.9207 186.125 89 185.898 89H182.328ZM175.256 79.718H181.614V70.776L175.256 79.718ZM203.034 89.34C201.402 89.34 199.996 89.1133 198.818 88.66C197.662 88.184 196.698 87.538 195.928 86.722C195.18 85.8833 194.613 84.92 194.228 83.832C193.865 82.7213 193.65 81.5427 193.582 80.296C193.559 79.684 193.536 79.004 193.514 78.256C193.514 77.4853 193.514 76.7147 193.514 75.944C193.536 75.1733 193.559 74.4707 193.582 73.836C193.627 72.5893 193.842 71.422 194.228 70.334C194.636 69.246 195.225 68.294 195.996 67.478C196.766 66.662 197.73 66.0273 198.886 65.574C200.064 65.098 201.447 64.86 203.034 64.86C204.62 64.86 205.992 65.098 207.148 65.574C208.304 66.0273 209.267 66.662 210.038 67.478C210.808 68.294 211.386 69.246 211.772 70.334C212.18 71.422 212.418 72.5893 212.486 73.836C212.508 74.4707 212.52 75.1733 212.52 75.944C212.542 76.7147 212.542 77.4853 212.52 78.256C212.52 79.004 212.508 79.684 212.486 80.296C212.418 81.5427 212.191 82.7213 211.806 83.832C211.42 84.92 210.842 85.8833 210.072 86.722C209.324 87.538 208.36 88.184 207.182 88.66C206.026 89.1133 204.643 89.34 203.034 89.34ZM203.034 84.92C204.348 84.92 205.312 84.4893 205.924 83.628C206.536 82.7667 206.864 81.5993 206.91 80.126C206.932 79.4687 206.944 78.7887 206.944 78.086C206.966 77.3833 206.966 76.6807 206.944 75.978C206.944 75.2753 206.932 74.618 206.91 74.006C206.864 72.6007 206.536 71.456 205.924 70.572C205.312 69.688 204.348 69.2347 203.034 69.212C201.696 69.2347 200.722 69.688 200.11 70.572C199.52 71.456 199.203 72.6007 199.158 74.006C199.135 74.618 199.112 75.2753 199.09 75.978C199.09 76.6807 199.09 77.3833 199.09 78.086C199.112 78.7887 199.135 79.4687 199.158 80.126C199.203 81.5993 199.532 82.7667 200.144 83.628C200.756 84.4893 201.719 84.92 203.034 84.92ZM227.717 89C227.49 89 227.297 88.9207 227.139 88.762C226.98 88.6033 226.901 88.3993 226.901 88.15V84.07H216.191C215.964 84.07 215.771 83.9907 215.613 83.832C215.454 83.6733 215.375 83.4693 215.375 83.22V80.466C215.375 80.3073 215.409 80.1373 215.477 79.956C215.545 79.7747 215.635 79.6047 215.749 79.446L225.711 65.778C226.005 65.3927 226.425 65.2 226.969 65.2H231.287C231.513 65.2 231.706 65.2793 231.865 65.438C232.023 65.5967 232.103 65.8007 232.103 66.05V79.548H235.129C235.401 79.548 235.605 79.6273 235.741 79.786C235.899 79.9447 235.979 80.1373 235.979 80.364V83.22C235.979 83.4693 235.899 83.6733 235.741 83.832C235.582 83.9907 235.389 84.07 235.163 84.07H232.103V88.15C232.103 88.3993 232.023 88.6033 231.865 88.762C231.706 88.9207 231.513 89 231.287 89H227.717ZM220.645 79.718H227.003V70.776L220.645 79.718Z" fill="white"/>
</g>
<defs>
<filter id="filter0_f_345_6" x="55.7783" y="101.345" width="305.443" height="164.563" filterUnits="userSpaceOnUse" color-interpolation-filters="sRGB">
<feFlood flood-opacity="0" result="BackgroundImageFix"/>
<feBlend mode="normal" in="SourceGraphic" in2="BackgroundImageFix" result="shape"/>
<feGaussianBlur stdDeviation="2.5" result="effect1_foregroundBlur_345_6"/>
</filter>
<linearGradient id="paint0_linear_345_6" x1="310.882" y1="193.416" x2="310.882" y2="49.6765" gradientUnits="userSpaceOnUse">
<stop stop-color="#A7A7A7" stop-opacity="0"/>
<stop offset="1" stop-color="#414141" stop-opacity="0.6"/>
</linearGradient>
<linearGradient id="paint1_linear_345_6" x1="95.4058" y1="148.463" x2="95.4058" y2="4.72325" gradientUnits="userSpaceOnUse">
<stop stop-color="#A7A7A7" stop-opacity="0"/>
<stop offset="1" stop-color="#414141" stop-opacity="0.6"/>
</linearGradient>
<linearGradient id="paint2_linear_345_6" x1="222.992" y1="196.112" x2="392.097" y2="196.112" gradientUnits="userSpaceOnUse">
<stop stop-color="#A7A7A7" stop-opacity="0"/>
<stop offset="1" stop-color="#414141" stop-opacity="0.6"/>
</linearGradient>
<linearGradient id="paint3_linear_345_6" x1="157.411" y1="158.022" x2="13.6714" y2="158.022" gradientUnits="userSpaceOnUse">
<stop stop-color="#A7A7A7" stop-opacity="0"/>
<stop offset="1" stop-color="#414141" stop-opacity="0.6"/>
</linearGradient>
<radialGradient id="paint4_radial_345_6" cx="0" cy="0" r="1" gradientUnits="userSpaceOnUse" gradientTransform="translate(89.7646 89.7646) rotate(90) scale(89.7646)">
<stop stop-color="#143710"/>
<stop offset="1" stop-color="#389D2D"/>
</radialGradient>
<radialGradient id="paint5_radial_345_6" cx="0" cy="0" r="1" gradientUnits="userSpaceOnUse" gradientTransform="translate(59.5019 59.5019) rotate(90) scale(59.5019)">
<stop stop-color="#143710"/>
<stop offset="1" stop-color="#389D2D"/>
</radialGradient>
<linearGradient id="paint6_linear_345_6" x1="172.366" y1="46.822" x2="234.103" y2="108.478" gradientUnits="userSpaceOnUse">
<stop/>
<stop offset="1" stop-color="#666666"/>
</linearGradient>
<linearGradient id="paint7_linear_345_6" x1="172.366" y1="46.822" x2="234.103" y2="108.478" gradientUnits="userSpaceOnUse">
<stop/>
<stop offset="1" stop-color="#666666"/>
</linearGradient>
<clipPath id="clip0_345_6">
<rect width="122.03" height="122.03" fill="white" transform="translate(141.888 16.1652)"/>
</clipPath>
</defs>
</svg>

<svg width="405" height="269" fill="none" xmlns="http://www.w3.org/2000/svg"><path d="M323.565 193.416v-79.525a6 6 0 0 0-6-6H304.2a6 6 0 0 1-6-6V49.676" stroke="url(#a)" stroke-opacity=".5" stroke-linecap="round" stroke-dasharray="13 13"/><circle cx="298.437" cy="50.263" transform="rotate(-90 298.437 50.263)" fill="#ACD4A7" r="5.31"/><circle cx="298.433" cy="50.291" transform="rotate(-90 298.433 50.291)" fill="#389D2D" r="3.186"/><path d="M82.723 148.463V68.938a6 6 0 0 1 6-6h13.366a6 6 0 0 0 6-6V4.723" stroke="url(#b)" stroke-opacity=".5" stroke-linecap="round" stroke-dasharray="13 13"/><circle cx="5.31" cy="5.31" transform="matrix(0 -1 -1 0 113.161 10.62)" fill="#ACD4A7" r="5.31"/><circle cx="3.186" cy="3.186" transform="matrix(0 -1 -1 0 111.041 8.524)" fill="#389D2D" r="3.186"/><path d="M222.992 183.429h94.618a6 6 0 0 1 6 6v13.366a6 6 0 0 0 6 6h62.487" stroke="url(#c)" stroke-opacity=".5" stroke-linecap="round"/><circle cx="5.31" cy="5.31" transform="matrix(1 0 0 -1 387.023 214.345)" fill="#ACD4A7" r="5.31"/><circle cx="3.186" cy="3.186" transform="matrix(1 0 0 -1 389.151 212.216)" fill="#389D2D" r="3.186"/><path d="M157.411 170.705H77.886a6 6 0 0 1-6-6V151.34a6 6 0 0 0-6-6H13.671" stroke="url(#d)" stroke-opacity=".5" stroke-linecap="round" stroke-dasharray="13 13"/><circle cx="5.31" cy="5.31" transform="matrix(-1 0 0 1 19.611 140.269)" fill="#ACD4A7" r="5.31"/><circle cx="3.186" cy="3.186" transform="matrix(-1 0 0 1 17.483 142.394)" fill="#389D2D" r="3.186"/><g filter="url(#e)"><path d="M305.399 118.267c-60.658-22.078-153.216-10.713-206.731 25.383-53.516 36.097-47.726 83.258 12.933 105.336 60.659 22.078 153.216 10.713 206.732-25.384 53.515-36.097 47.725-83.257-12.934-105.335z" stroke="#7D7D7D" stroke-opacity=".3" stroke-width="2" stroke-linecap="round" stroke-linejoin="round"/></g><path d="M305.399 89.56c-60.658-22.078-153.216-10.714-206.731 25.383C45.152 151.04 50.942 198.2 111.6 220.278c60.659 22.078 153.216 10.713 206.732-25.384 53.515-36.096 47.725-83.256-12.934-105.334z" stroke="#389D2D" stroke-width="2" stroke-linecap="round" stroke-linejoin="round"/><circle opacity=".11" cx="89.765" cy="89.765" r="89.765" transform="matrix(-.9397 -.34202 -.82904 .5592 366.776 141.887)" fill="url(#f)"/><circle opacity=".11" cx="59.502" cy="59.502" r="59.502" transform="matrix(-.9397 -.34202 -.82904 .5592 310.807 155.809)" fill="url(#g)"/><path opacity=".61" d="M227.515 160.517c-15.397-5.604-38.889-2.719-52.473 6.443-13.584 9.162-12.114 21.132 3.283 26.736 15.396 5.604 38.889 2.719 52.473-6.443 13.583-9.162 12.113-21.132-3.283-26.736z" fill="#389D2D" stroke="#C2E6BE" stroke-linecap="round" stroke-linejoin="round"/><g clip-path="url(#h)"><path d="m199.738 19.414-54.445 54.517a4.6 4.6 0 0 0 0 6.498l54.445 54.517a4.585 4.585 0 0 0 6.489 0l54.446-54.517a4.6 4.6 0 0 0 0-6.498l-54.446-54.517a4.584 4.584 0 0 0-6.489 0z" fill="url(#i)" stroke="url(#j)"/><path d="m199.81 26.616-47.253 47.315a4.6 4.6 0 0 0 0 6.498l47.253 47.314a4.585 4.585 0 0 0 6.489 0l47.252-47.314a4.6 4.6 0 0 0 0-6.498l-47.252-47.314a4.584 4.584 0 0 0-6.489 0z" stroke="#A7A7A7" stroke-opacity=".3"/><path d="M182.328 89a.787.787 0 0 1-.578-.238.827.827 0 0 1-.238-.612v-4.08h-10.71a.787.787 0 0 1-.578-.238.827.827 0 0 1-.238-.612v-2.754c0-.159.034-.329.102-.51.068-.181.159-.351.272-.51l9.962-13.668c.295-.385.714-.578 1.258-.578h4.318c.227 0 .419.08.578.238a.827.827 0 0 1 .238.612v13.498h3.026c.272 0 .476.08.612.238a.786.786 0 0 1 .238.578v2.856c0 .25-.079.453-.238.612a.787.787 0 0 1-.578.238h-3.06v4.08c0 .25-.079.453-.238.612a.787.787 0 0 1-.578.238h-3.57zm-7.072-9.282h6.358v-8.942l-6.358 8.942zm27.778 9.622c-1.632 0-3.038-.227-4.216-.68-1.156-.476-2.12-1.122-2.89-1.938a8.613 8.613 0 0 1-1.7-2.89 13.743 13.743 0 0 1-.646-3.536c-.023-.612-.046-1.292-.068-2.04v-2.312c.022-.77.045-1.473.068-2.108.045-1.247.26-2.414.646-3.502a8.408 8.408 0 0 1 1.768-2.856c.77-.816 1.734-1.45 2.89-1.904 1.178-.476 2.561-.714 4.148-.714 1.586 0 2.958.238 4.114.714 1.156.453 2.119 1.088 2.89 1.904a8.015 8.015 0 0 1 1.734 2.856c.408 1.088.646 2.255.714 3.502.022.635.034 1.337.034 2.108.022.77.022 1.541 0 2.312 0 .748-.012 1.428-.034 2.04a12.886 12.886 0 0 1-.68 3.536 8.361 8.361 0 0 1-1.734 2.89c-.748.816-1.712 1.462-2.89 1.938-1.156.453-2.539.68-4.148.68zm0-4.42c1.314 0 2.278-.43 2.89-1.292.612-.861.94-2.029.986-3.502a60.97 60.97 0 0 0 .034-2.04c.022-.703.022-1.405 0-2.108 0-.703-.012-1.36-.034-1.972-.046-1.405-.374-2.55-.986-3.434-.612-.884-1.576-1.337-2.89-1.36-1.338.023-2.312.476-2.924 1.36-.59.884-.907 2.029-.952 3.434-.023.612-.046 1.27-.068 1.972v2.108c.022.703.045 1.383.068 2.04.045 1.473.374 2.64.986 3.502.612.861 1.575 1.292 2.89 1.292zM227.717 89a.785.785 0 0 1-.578-.238.827.827 0 0 1-.238-.612v-4.08h-10.71a.785.785 0 0 1-.578-.238.827.827 0 0 1-.238-.612v-2.754c0-.159.034-.329.102-.51.068-.181.158-.351.272-.51l9.962-13.668c.294-.385.714-.578 1.258-.578h4.318c.226 0 .419.08.578.238a.831.831 0 0 1 .238.612v13.498h3.026c.272 0 .476.08.612.238a.79.79 0 0 1 .238.578v2.856c0 .25-.08.453-.238.612a.788.788 0 0 1-.578.238h-3.06v4.08c0 .25-.08.453-.238.612a.788.788 0 0 1-.578.238h-3.57zm-7.072-9.282h6.358v-8.942l-6.358 8.942z" fill="#fff"/></g><defs><linearGradient id="a" x1="310.882" y1="193.416" x2="310.882" y2="49.676" gradientUnits="userSpaceOnUse"><stop stop-color="#A7A7A7" stop-opacity="0"/><stop offset="1" stop-color="#414141" stop-opacity=".6"/></linearGradient><linearGradient id="b" x1="95.406" y1="148.463" x2="95.406" y2="4.723" gradientUnits="userSpaceOnUse"><stop stop-color="#A7A7A7" stop-opacity="0"/><stop offset="1" stop-color="#414141" stop-opacity=".6"/></linearGradient><linearGradient id="c" x1="222.992" y1="196.112" x2="392.097" y2="196.112" gradientUnits="userSpaceOnUse"><stop stop-color="#A7A7A7" stop-opacity="0"/><stop offset="1" stop-color="#414141" stop-opacity=".6"/></linearGradient><linearGradient id="d" x1="157.411" y1="158.022" x2="13.671" y2="158.022" gradientUnits="userSpaceOnUse"><stop stop-color="#A7A7A7" stop-opacity="0"/><stop offset="1" stop-color="#414141" stop-opacity=".6"/></linearGradient><linearGradient id="i" x1="172.366" y1="46.822" x2="234.103" y2="108.478" gradientUnits="userSpaceOnUse"><stop/><stop offset="1" stop-color="#666"/></linearGradient><linearGradient id="j" x1="172.366" y1="46.822" x2="234.103" y2="108.478" gradientUnits="userSpaceOnUse"><stop/><stop offset="1" stop-color="#666"/></linearGradient><radialGradient id="f" cx="0" cy="0" r="1" gradientUnits="userSpaceOnUse" gradientTransform="rotate(90 0 89.765) scale(89.7646)"><stop stop-color="#143710"/><stop offset="1" stop-color="#389D2D"/></radialGradient><radialGradient id="g" cx="0" cy="0" r="1" gradientUnits="userSpaceOnUse" gradientTransform="rotate(90 0 59.502) scale(59.5019)"><stop stop-color="#143710"/><stop offset="1" stop-color="#389D2D"/></radialGradient><clipPath id="h"><path fill="#fff" transform="translate(141.888 16.165)" d="M0 0h122.03v122.03H0z"/></clipPath><filter id="e" x="55.778" y="101.345" width="305.443" height="164.563" filterUnits="userSpaceOnUse" color-interpolation-filters="sRGB"><feFlood flood-opacity="0" result="BackgroundImageFix"/><feBlend in="SourceGraphic" in2="BackgroundImageFix" result="shape"/><feGaussianBlur stdDeviation="2.5" result="effect1_foregroundBlur_345_6"/></filter></defs></svg>
